SVG_Azure_All/Management Group.svg

<?xml version="1.0" encoding="UTF-8" standalone="no"?>
<!-- Generated by Microsoft Visio, SVG Export Management Group.svg Page-1 -->

<svg
   xmlns:dc="http://purl.org/dc/elements/1.1/"
   xmlns:cc="http://creativecommons.org/ns#"
   xmlns:rdf="http://www.w3.org/1999/02/22-rdf-syntax-ns#"
   xmlns:svg="http://www.w3.org/2000/svg"
   xmlns="http://www.w3.org/2000/svg"
   xmlns:sodipodi="http://sodipodi.sourceforge.net/DTD/sodipodi-0.dtd"
   xmlns:inkscape="http://www.inkscape.org/namespaces/inkscape"
   width="0.78735989in"
   height="0.63021481in"
   viewBox="0 0 56.68998 45.375557"
   xml:space="preserve"
   class="st6"
   version="1.1"
   id="svg59"
   sodipodi:docname="Management Group.svg"
   style="font-size:12px;overflow:visible;color-interpolation-filters:sRGB;fill:none;fill-rule:evenodd;stroke-linecap:square;stroke-miterlimit:3"
   inkscape:version="0.92.5 (2060ec1f9f, 2020-04-08)"><metadata
   id="metadata65"><rdf:RDF><cc:Work
       rdf:about=""><dc:format>image/svg+xml</dc:format><dc:type
         rdf:resource="http://purl.org/dc/dcmitype/StillImage" /></cc:Work></rdf:RDF></metadata><defs
   id="defs63" /><sodipodi:namedview
   pagecolor="#ffffff"
   bordercolor="#666666"
   borderopacity="1"
   objecttolerance="10"
   gridtolerance="10"
   guidetolerance="10"
   inkscape:pageopacity="0"
   inkscape:pageshadow="2"
   inkscape:window-width="640"
   inkscape:window-height="480"
   id="namedview61"
   showgrid="false"
   inkscape:zoom="1.9321052"
   inkscape:cx="37.795227"
   inkscape:cy="15.736027"
   inkscape:window-x="0"
   inkscape:window-y="0"
   inkscape:window-maximized="0"
   inkscape:current-layer="svg59" />
	<style
   type="text/css"
   id="style2">
	<![CDATA[
		.st1 {fill:#57a300;stroke:none;stroke-linecap:butt;stroke-width:12.24}
		.st2 {fill:#3999c6;stroke:none;stroke-linecap:butt;stroke-width:12.24}
		.st3 {fill:#804998;stroke:none;stroke-linecap:butt;stroke-width:12.24}
		.st4 {fill:#0072c6;stroke:none;stroke-linecap:butt;stroke-width:12.24}
		.st5 {fill:#7a7a7a;stroke:none;stroke-linecap:butt;stroke-width:12.24}
		.st6 {fill:none;fill-rule:evenodd;font-size:12px;overflow:visible;stroke-linecap:square;stroke-miterlimit:3}
	]]>
	</style>

	<g
   id="g57"
   transform="translate(-12.24,-12.231531)">
		<title
   id="title4">Page-1</title>
		<g
   id="group3151-1"
   transform="translate(12.24,-34.0157)">
			<title
   id="title6">Management Group</title>
			<g
   id="group3152-2">
				<title
   id="title8"> ManagementGroups</title>
				<g
   id="shape3153-3"
   transform="translate(10.292,-10.1205)">
					<title
   id="title10">Sheet.3153</title>
					<path
   d="M 29.39,74.79 29.07,75.56 18.93,63.52 18.05,64.23 17.18,63.52 7.04,75.56 6.72,74.79 0,90.75 2.09,91.61 6.72,80.63 11.34,91.61 13.43,90.75 8.03,77.9 18.05,65.99 28.08,77.9 l -5.4,12.85 2.09,0.86 4.62,-10.98 4.63,10.98 2.09,-0.86 z"
   class="st1"
   id="path12"
   inkscape:connector-curvature="0"
   style="fill:#57a300;stroke:none;stroke-width:12.23999977;stroke-linecap:butt" />
				</g>
				<g
   id="shape3154-5"
   transform="translate(41.9528,-7.18484)">
					<title
   id="title15">Sheet.3154</title>
					<ellipse
   cx="3.4015701"
   cy="88.242203"
   rx="3.4015701"
   ry="3.3678999"
   class="st2"
   id="ellipse17"
   style="fill:#3999c6;stroke:none;stroke-width:12.23999977;stroke-linecap:butt" />
				</g>
				<g
   id="shape3155-7"
   transform="translate(30.6142,-7.18484)">
					<title
   id="title20">Sheet.3155</title>
					<ellipse
   cx="3.4015701"
   cy="88.242203"
   rx="3.4015701"
   ry="3.3678999"
   class="st2"
   id="ellipse22"
   style="fill:#3999c6;stroke:none;stroke-width:12.23999977;stroke-linecap:butt" />
				</g>
				<g
   id="shape3156-9"
   transform="translate(22.6772,-31.8827)">
					<title
   id="title25">Sheet.3156</title>
					<ellipse
   cx="5.6692901"
   cy="85.996902"
   rx="5.6692901"
   ry="5.6131601"
   class="st3"
   id="ellipse27"
   style="fill:#804998;stroke:none;stroke-width:12.23999977;stroke-linecap:butt" />
				</g>
				<g
   id="shape3157-11"
   transform="translate(12.4724,-19.5338)">
					<title
   id="title30">Sheet.3157</title>
					<ellipse
   cx="4.53543"
   cy="87.119598"
   rx="4.53543"
   ry="4.49053"
   class="st4"
   id="ellipse32"
   style="fill:#0072c6;stroke:none;stroke-width:12.23999977;stroke-linecap:butt" />
				</g>
				<g
   id="shape3158-13"
   transform="translate(35.1496,-19.5338)">
					<title
   id="title35">Sheet.3158</title>
					<ellipse
   cx="4.53543"
   cy="87.119598"
   rx="4.53543"
   ry="4.49053"
   class="st4"
   id="ellipse37"
   style="fill:#0072c6;stroke:none;stroke-width:12.23999977;stroke-linecap:butt" />
				</g>
				<g
   id="shape3159-15"
   transform="translate(19.2756,-7.18484)">
					<title
   id="title40">Sheet.3159</title>
					<ellipse
   cx="3.4015701"
   cy="88.242203"
   rx="3.4015701"
   ry="3.3678999"
   class="st2"
   id="ellipse42"
   style="fill:#3999c6;stroke:none;stroke-width:12.23999977;stroke-linecap:butt" />
				</g>
				<g
   id="shape3160-17"
   transform="translate(7.93701,-7.18484)">
					<title
   id="title45">Sheet.3160</title>
					<ellipse
   cx="3.4015701"
   cy="88.242203"
   rx="3.4015701"
   ry="3.3678999"
   class="st2"
   id="ellipse47"
   style="fill:#3999c6;stroke:none;stroke-width:12.23999977;stroke-linecap:butt" />
				</g>
				<g
   id="shape3161-19">
					<title
   id="title50">Sheet.3161</title>
					<path
   d="M 10.77,91.61 A 2.10217,2.08136 0 0 1 9.98,91.39 L 2.27,86.9 A 4.67717,4.63086 0 0 1 0,83.08 V 54.79 a 4.52863,4.48379 0 0 1 2.27,-3.82 l 7.71,-4.49 a 1.6541487,1.637769 0 0 1 1.7,2.81 L 3.97,53.78 A 1.52617,1.51106 -180 0 0 3.4,54.79 v 28.29 a 1.52617,1.51106 -180 0 0 0.57,1.01 l 7.71,4.49 a 1.6509,1.63455 0 0 1 0.57,2.24 1.93776,1.91858 0 0 1 -1.48,0.79 z M 45.92,46.26 a 2.10217,2.08136 0 0 1 0.79,0.22 l 7.72,4.49 a 4.67717,4.63086 0 0 1 2.26,3.82 v 28.29 a 4.52863,4.48379 0 0 1 -2.26,3.82 l -7.72,4.49 a 1.6541487,1.637769 0 0 1 -1.7,-2.81 l 7.71,-4.49 a 1.52617,1.51106 -180 0 0 0.57,-1.01 V 54.79 a 1.52617,1.51106 -180 0 0 -0.57,-1.01 l -7.71,-4.49 a 1.6509,1.63455 0 0 1 -0.56,-2.25 2.14186,2.12065 0 0 1 1.47,-0.78 z"
   class="st5"
   id="path52"
   inkscape:connector-curvature="0"
   style="fill:#7a7a7a;stroke:none;stroke-width:12.23999977;stroke-linecap:butt" />
				</g>
			</g>
		</g>
	</g>
</svg>

<?xml version="1.0" encoding="UTF-8" standalone="no"?>
<!DOCTYPE svg PUBLIC "-//W3C//DTD SVG 1.1//EN" "http://www.w3.org/Graphics/SVG/1.1/DTD/svg11.dtd">
<!-- Generated by Microsoft Visio, SVG Export Management Group.svg Page-1 -->
<svg xmlns="http://www.w3.org/2000/svg" xmlns:xlink="http://www.w3.org/1999/xlink" xmlns:ev="http://www.w3.org/2001/xml-events"
		width="1.1274in" height="1.27236in" viewBox="0 0 81.1729 91.6101" xml:space="preserve" color-interpolation-filters="sRGB"
		class="st6">
	<style type="text/css">
	<![CDATA[
		.st1 {fill:#57a300;stroke:none;stroke-linecap:butt;stroke-width:12.24}
		.st2 {fill:#3999c6;stroke:none;stroke-linecap:butt;stroke-width:12.24}
		.st3 {fill:#804998;stroke:none;stroke-linecap:butt;stroke-width:12.24}
		.st4 {fill:#0072c6;stroke:none;stroke-linecap:butt;stroke-width:12.24}
		.st5 {fill:#7a7a7a;stroke:none;stroke-linecap:butt;stroke-width:12.24}
		.st6 {fill:none;fill-rule:evenodd;font-size:12px;overflow:visible;stroke-linecap:square;stroke-miterlimit:3}
	]]>
	</style>

	<g>
		<title>Page-1</title>
		<g id="group3102-1" transform="translate(12.24,-34.0157)">
			<title>Management Group</title>
			<g id="group3103-2">
				<title> ManagementGroups</title>
				<g id="shape3104-3" transform="translate(10.292,-10.1205)">
					<title>Sheet.3104</title>
					<path d="M29.39 74.79 L29.07 75.56 L18.93 63.52 L18.05 64.23 L17.18 63.52 L7.04 75.56 L6.72 74.79 L0 90.75 L2.09
								 91.61 L6.72 80.63 L11.34 91.61 L13.43 90.75 L8.03 77.9 L18.05 65.99 L28.08 77.9 L22.68 90.75 L24.77
								 91.61 L29.39 80.63 L34.02 91.61 L36.11 90.75 L29.39 74.79 Z" class="st1"/>
				</g>
				<g id="shape3105-5" transform="translate(41.9528,-7.18484)">
					<title>Sheet.3105</title>
					<ellipse cx="3.40157" cy="88.2422" rx="3.40157" ry="3.3679" class="st2"/>
				</g>
				<g id="shape3106-7" transform="translate(30.6142,-7.18484)">
					<title>Sheet.3106</title>
					<ellipse cx="3.40157" cy="88.2422" rx="3.40157" ry="3.3679" class="st2"/>
				</g>
				<g id="shape3107-9" transform="translate(22.6772,-31.8827)">
					<title>Sheet.3107</title>
					<ellipse cx="5.66929" cy="85.9969" rx="5.66929" ry="5.61316" class="st3"/>
				</g>
				<g id="shape3108-11" transform="translate(12.4724,-19.5338)">
					<title>Sheet.3108</title>
					<ellipse cx="4.53543" cy="87.1196" rx="4.53543" ry="4.49053" class="st4"/>
				</g>
				<g id="shape3109-13" transform="translate(35.1496,-19.5338)">
					<title>Sheet.3109</title>
					<ellipse cx="4.53543" cy="87.1196" rx="4.53543" ry="4.49053" class="st4"/>
				</g>
				<g id="shape3110-15" transform="translate(19.2756,-7.18484)">
					<title>Sheet.3110</title>
					<ellipse cx="3.40157" cy="88.2422" rx="3.40157" ry="3.3679" class="st2"/>
				</g>
				<g id="shape3111-17" transform="translate(7.93701,-7.18484)">
					<title>Sheet.3111</title>
					<ellipse cx="3.40157" cy="88.2422" rx="3.40157" ry="3.3679" class="st2"/>
				</g>
				<g id="shape3112-19">
					<title>Sheet.3112</title>
					<path d="M10.77 91.61 A2.10217 2.08136 0 0 1 9.98 91.39 L2.27 86.9 A4.67717 4.63086 0 0 1 0 83.08 L0 54.79 A4.52863
								 4.48379 0 0 1 2.27 50.97 L9.98 46.48 A1.65317 1.6368 0 0 1 11.68 49.29 L3.97 53.78 A1.52617 1.51106
								 -180 0 0 3.4 54.79 L3.4 83.08 A1.52617 1.51106 -180 0 0 3.97 84.09 L11.68 88.58 A1.6509 1.63455
								 0 0 1 12.25 90.82 A1.93776 1.91858 0 0 1 10.77 91.61 ZM45.92 46.26 A2.10217 2.08136 0 0 1 46.71
								 46.48 L54.43 50.97 A4.67717 4.63086 0 0 1 56.69 54.79 L56.69 83.08 A4.52863 4.48379 0 0 1 54.43
								 86.9 L46.71 91.39 A1.65317 1.6368 0 0 1 45.01 88.58 L52.72 84.09 A1.52617 1.51106 -180 0 0 53.29
								 83.08 L53.29 54.79 A1.52617 1.51106 -180 0 0 52.72 53.78 L45.01 49.29 A1.6509 1.63455 0 0 1 44.45
								 47.04 A2.14186 2.12065 0 0 1 45.92 46.26 Z" class="st5"/>
				</g>
			</g>
		</g>
	</g>
</svg>
